svg/u1f506.svg

<svg viewBox="0 0 128 128" xmlns="http://www.w3.org/2000/svg">
  <path d="M78.42,43.31l-30.7,0.08l-5,19.62l5,2.54c0,0-0.24-4.42,1.98-8.66c2.22-4.24,6.63-8.37,14.36-8.25 c15.08,0.23,15.68,17.13,15.68,17.13s9.99-6.6,8.53-8.45C86.8,55.47,78.42,43.31,78.42,43.31z" fill="#F17900"/>
  <path d="M35.25,61.01c0,0-1.32,9.52,3.92,18.39c3.85,6.51,11.08,13.3,24.08,13.54 c12.16,0.23,20.89-6.15,24.93-13.47c4.71-8.54,3.85-17.93,3.85-17.93S81.42,74.4,80.65,75.32c-0.77,0.92-16.16,8.77-16.16,8.77 s-12.77-0.38-13.7-2.69C49.87,79.09,35.25,61.01,35.25,61.01z" fill="#F17900"/>
  <path d="M64.05,35.46C42.51,35.35,34.87,52.8,35.09,63.32c0.25,11.88,8.04,26.74,28.35,26.74 c20.18,0,28.47-15.97,28.72-27.98C92.3,54.9,86.95,35.59,64.05,35.46z M79.65,65.17c-0.5,9.66-8.42,14.98-16.34,14.98 c-7.8,0-15.47-6.19-15.6-16.34c-0.14-11.27,6.81-17.74,16.34-17.45C76.31,46.73,80.11,56.27,79.65,65.17z" fill="#FFA624"/>
  <path d="M58.03,20.71c0,0-1.22,8.08,6.17,8.16c7.21,0.07,6.44-7.11,6.44-7.11l-3.75-7.66L58.03,20.71z" fill="#F17900"/>
  <path d="M109.14,21.09c0,0,3.29,4.34-1.35,9.09c-3.22,3.29-9.16,8.77-10.51,9.98 c-2.13,1.9-5.92,2.07-8.56-0.27c-3.49-3.09-1.11-7.68-1.11-7.68L109.14,21.09z" fill="#F17900"/>
  <path d="M99.5,63.19c-0.14,2.26,0.26,7,4.89,7.31c4.53,0.31,14.45,0.45,16.41,0.23s4.08-2.27,4.31-5.22 c0.21-2.79-1.08-5.06-1.38-5.14C123.43,60.29,99.5,63.19,99.5,63.19z" fill="#F17900"/>
  <path d="M89.16,89.48c0,0-2.89,1.9-2.84,5.32c0.05,2.94,2.41,4.9,6.87,9.28c4.46,4.39,6.43,5.82,9.53,5.98 c3.18,0.16,5.52-2.45,5.82-4.76c0.43-3.36-0.85-4.62-0.85-4.62L89.16,89.48z" fill="#F17900"/>
  <path d="M57.42,118.15c0,0-0.75,7.14,5.75,7.25c6.88,0.11,6.35-7.32,6.35-7.32l-6.73-3.03L57.42,118.15z" fill="#F17900"/>
  <path d="M17.96,104.07c0,0-0.25,2.58,2.02,4.62c1.59,1.43,4.33,2.11,7.2,0.68c3.19-1.6,6.87-6.07,8.83-8.19 c1.97-2.12,5.21-5.73,3.63-9.21c-1.37-3.02-2.86-2.99-2.86-2.99L17.96,104.07z" fill="#F17900"/>
  <path d="M2.74,62.32c0,0-1.02,7.39,3.96,7.96c5.3,0.6,14.66,0.51,17.22,0.3c3.78-0.3,4.85-4.05,4.64-8.4 c-0.16-3.28-13.26-0.68-13.26-0.68L2.74,62.32z" fill="#F17900"/>
  <path d="M21.77,18.87c0,0-5.71,2.96-2.67,8.53C21.61,32,29.43,39.59,31.67,40.84 c3.11,1.73,6.32,0.49,7.8-1.23c2.34-2.72,1.08-6.36,1.08-6.36L21.77,18.87z" fill="#F17900"/>
  <radialGradient id="SVGID_1_" cx="66.6062" cy="-1.3203" gradientUnits="userSpaceOnUse" r="27.9062">
    <stop offset="0.426" stop-color="#FFA624"/>
    <stop offset="0.8158" stop-color="#FF8C0C"/>
  </radialGradient>
  <path d="M64.38,1.75c-3.31,0-6.05,2.27-6.28,5.37c-0.23,3.1-0.16,12.72-0.11,14.17 c0.05,1.45,2.05,4.08,6.12,4.18c5.05,0.12,6.59-3.24,6.59-3.24S70.58,9.31,70.58,7.42S69.45,1.75,64.38,1.75z" fill="url(#SVGID_1_)"/>
  <radialGradient id="SVGID_2_" cx="105.9678" cy="17.5618" gradientUnits="userSpaceOnUse" r="23.984">
    <stop offset="0.426" stop-color="#FFA624"/>
    <stop offset="0.8158" stop-color="#FF8C0C"/>
  </radialGradient>
  <path d="M99.3,21.03c-2.24,1.89-9.64,8.01-11.42,10.63c-1.11,1.63-1.4,4.4,0.97,6.28 c1.7,1.36,5.67,1.53,8.08-0.45s9.31-8.47,11.19-10.77c1.5-1.83,2.77-4.37-0.06-6.88C105.24,17.33,101.75,18.96,99.3,21.03z" fill="url(#SVGID_2_)"/>
  <radialGradient id="SVGID_3_" cx="122.2816" cy="63.3408" gradientUnits="userSpaceOnUse" r="21.1241">
    <stop offset="0.3162" stop-color="#FFA624"/>
    <stop offset="0.8158" stop-color="#FF8C0C"/>
  </radialGradient>
  <path d="M104.51,58.22c-2.51,0.25-5.02,2.2-5.02,5.02s1.88,4.5,6.06,4.71c4.18,0.21,12.23,0.1,14.74,0 c2.61-0.1,4.38-2.5,4.29-5.33c-0.1-3.35-3.24-4.29-5.96-4.39C115.9,58.11,106.6,58.01,104.51,58.22z" fill="url(#SVGID_3_)"/>
  <radialGradient id="SVGID_4_" cx="103.9149" cy="105.0651" gradientUnits="userSpaceOnUse" r="18.6905">
    <stop offset="0.426" stop-color="#FFA624"/>
    <stop offset="0.8158" stop-color="#FF8C0C"/>
  </radialGradient>
  <path d="M89.06,89.53c-1.7,1.53-3,4.57,1.17,8.59c4.18,4.02,7.58,7.63,11.12,9.08 c2.3,0.94,3.93,0.79,5.9-1.25c1.31-1.36,1.6-3.78,0.26-5.59c-2.66-3.6-9.51-9.83-12.32-11.33C92.73,87.73,90.67,88.07,89.06,89.53z" fill="url(#SVGID_4_)"/>
  <radialGradient id="SVGID_5_" cx="63.375" cy="119.8728" gradientUnits="userSpaceOnUse" r="17.4903">
    <stop offset="0.426" stop-color="#FFA624"/>
    <stop offset="0.8158" stop-color="#FF8C0C"/>
  </radialGradient>
  <path d="M63.49,100c-3.35,0-6.02,2.55-6.13,6.53s-0.05,10.09,0,11.69c0.05,1.6,2.8,4.01,5.92,4.05 c4.46,0.06,6.25-2.86,6.24-4.19c-0.01-1.27-0.04-9.83-0.01-11.42C69.57,103.45,67.35,100,63.49,100z" fill="url(#SVGID_5_)"/>
  <radialGradient id="SVGID_6_" cx="19.9281" cy="105.5338" gradientUnits="userSpaceOnUse" r="20.7204">
    <stop offset="0.426" stop-color="#FFA624"/>
    <stop offset="0.8158" stop-color="#FF8C0C"/>
  </radialGradient>
  <path d="M37.65,89.34c-2.07-1.51-5.39-1.81-8.88,1.46c-3.49,3.27-8.32,8.1-9.39,9.61 c-1.08,1.51-2.25,4.36-0.6,6.2c1.72,1.94,5.73,1.62,8.36-0.66c2.63-2.28,9.56-9.63,11.21-12.09C39.72,91.79,39.46,90.66,37.65,89.34 z" fill="url(#SVGID_6_)"/>
  <radialGradient id="SVGID_7_" cx="2.1884" cy="63.1368" gradientUnits="userSpaceOnUse" r="25.214">
    <stop offset="0.426" stop-color="#FFA624"/>
    <stop offset="0.8158" stop-color="#FF8C0C"/>
  </radialGradient>
  <path d="M8.4,57.82c-2.82,0.08-5.74,1.8-5.78,5.2c-0.04,3.4,2.6,4.7,5.35,4.85s13.24,0.39,15.84,0.18 c2.6-0.22,4.46-2.06,4.75-5.02s-2.24-4.62-4.91-4.91C20.98,57.82,11,57.75,8.4,57.82z" fill="url(#SVGID_7_)"/>
  <radialGradient id="SVGID_8_" cx="24.0086" cy="21.3721" gradientUnits="userSpaceOnUse" r="20.7601">
    <stop offset="0.426" stop-color="#FFA624"/>
    <stop offset="0.8158" stop-color="#FF8C0C"/>
  </radialGradient>
  <path d="M21.48,19.09c-1.81,1.61-2.48,4.55,0.05,7.87c3.27,4.3,8.63,9.3,10.53,10.77 c2.24,1.73,5.42,1.74,7.41-0.65c1.6-1.92,1.81-3.9-0.94-7.3c-2.75-3.4-8.46-9.18-9.9-10.48C26.77,17.62,23.43,17.35,21.48,19.09z" fill="url(#SVGID_8_)"/>
</svg>

<svg viewBox="0 0 128 128" xmlns="http://www.w3.org/2000/svg">
  <defs>
    <radialGradient id="SVGID_1_" cx="66.6062" cy="-1.3203" gradientUnits="userSpaceOnUse" r="27.9062">
      <stop offset="0.426" stop-color="#FFA624"/>
      <stop offset="0.8158" stop-color="#FF8C0C"/>
    </radialGradient>
    <radialGradient id="SVGID_2_" cx="105.9678" cy="17.5618" gradientUnits="userSpaceOnUse" r="23.984">
      <stop offset="0.426" stop-color="#FFA624"/>
      <stop offset="0.8158" stop-color="#FF8C0C"/>
    </radialGradient>
    <radialGradient id="SVGID_3_" cx="122.2816" cy="63.3408" gradientUnits="userSpaceOnUse" r="21.1241">
      <stop offset="0.3162" stop-color="#FFA624"/>
      <stop offset="0.8158" stop-color="#FF8C0C"/>
    </radialGradient>
    <radialGradient id="SVGID_4_" cx="103.9149" cy="105.0651" gradientUnits="userSpaceOnUse" r="18.6905">
      <stop offset="0.426" stop-color="#FFA624"/>
      <stop offset="0.8158" stop-color="#FF8C0C"/>
    </radialGradient>
    <radialGradient id="SVGID_5_" cx="63.375" cy="119.8728" gradientUnits="userSpaceOnUse" r="17.4903">
      <stop offset="0.426" stop-color="#FFA624"/>
      <stop offset="0.8158" stop-color="#FF8C0C"/>
    </radialGradient>
    <radialGradient id="SVGID_6_" cx="19.9281" cy="105.5338" gradientUnits="userSpaceOnUse" r="20.7204">
      <stop offset="0.426" stop-color="#FFA624"/>
      <stop offset="0.8158" stop-color="#FF8C0C"/>
    </radialGradient>
    <radialGradient id="SVGID_7_" cx="2.1884" cy="63.1368" gradientUnits="userSpaceOnUse" r="25.214">
      <stop offset="0.426" stop-color="#FFA624"/>
      <stop offset="0.8158" stop-color="#FF8C0C"/>
    </radialGradient>
    <radialGradient id="SVGID_8_" cx="24.0086" cy="21.3721" gradientUnits="userSpaceOnUse" r="20.7601">
      <stop offset="0.426" stop-color="#FFA624"/>
      <stop offset="0.8158" stop-color="#FF8C0C"/>
    </radialGradient>
  </defs>
  <path d="M78.42,43.31 L47.72,43.39 L42.72,63.01 L47.72,65.55 C47.72,65.55 47.48,61.13 49.7,56.89 C51.92,52.65 56.33,48.52 64.06,48.64 C79.14,48.87 79.74,65.77 79.74,65.77 C79.74,65.77 89.73,59.17 88.27,57.32 C86.8,55.47 78.42,43.31 78.42,43.31 Z" fill="#F17900"/>
  <path d="M35.25,61.01 C35.25,61.01 33.93,70.53 39.17,79.4 C43.02,85.91 50.25,92.7 63.25,92.94 C75.41,93.17 84.14,86.79 88.18,79.47 C92.89,70.93 92.03,61.54 92.03,61.54 C92.03,61.54 81.42,74.4 80.65,75.32 C79.88,76.24 64.49,84.09 64.49,84.09 C64.49,84.09 51.72,83.71 50.79,81.4 C49.87,79.09 35.25,61.01 35.25,61.01 Z" fill="#F17900"/>
  <path d="M64.05,35.46 C42.51,35.35 34.87,52.8 35.09,63.32 C35.34,75.2 43.13,90.06 63.44,90.06 C83.62,90.06 91.91,74.09 92.16,62.08 C92.3,54.9 86.95,35.59 64.05,35.46 Z M79.65,65.17 C79.15,74.83 71.23,80.15 63.31,80.15 C55.51,80.15 47.84,73.96 47.71,63.81 C47.57,52.54 54.52,46.07 64.05,46.36 C76.31,46.73 80.11,56.27 79.65,65.17 Z" fill="#FFA624"/>
  <path d="M58.03,20.71 C58.03,20.71 56.81,28.79 64.2,28.87 C71.41,28.94 70.64,21.76 70.64,21.76 L66.89,14.1 L58.03,20.71 Z" fill="#F17900"/>
  <path d="M109.14,21.09 C109.14,21.09 112.43,25.43 107.79,30.18 C104.57,33.47 98.63,38.95 97.28,40.16 C95.15,42.06 91.36,42.23 88.72,39.89 C85.23,36.8 87.61,32.21 87.61,32.21 L109.14,21.09 Z" fill="#F17900"/>
  <path d="M99.5,63.19 C99.36,65.45 99.76,70.19 104.39,70.5 C108.92,70.81 118.84,70.95 120.8,70.73 C122.76,70.51 124.88,68.46 125.11,65.51 C125.32,62.72 124.03,60.45 123.73,60.37 C123.43,60.29 99.5,63.19 99.5,63.19 Z" fill="#F17900"/>
  <path d="M89.16,89.48 C89.16,89.48 86.27,91.38 86.32,94.8 C86.37,97.74 88.73,99.7 93.19,104.08 C97.65,108.47 99.62,109.9 102.72,110.06 C105.9,110.22 108.24,107.61 108.54,105.3 C108.97,101.94 107.69,100.68 107.69,100.68 L89.16,89.48 Z" fill="#F17900"/>
  <path d="M57.42,118.15 C57.42,118.15 56.67,125.29 63.17,125.4 C70.05,125.51 69.52,118.08 69.52,118.08 L62.79,115.05 L57.42,118.15 Z" fill="#F17900"/>
  <path d="M17.96,104.07 C17.96,104.07 17.71,106.65 19.98,108.69 C21.57,110.12 24.31,110.8 27.18,109.37 C30.37,107.77 34.05,103.3 36.01,101.18 C37.98,99.06 41.22,95.45 39.64,91.97 C38.27,88.95 36.78,88.98 36.78,88.98 L17.96,104.07 Z" fill="#F17900"/>
  <path d="M2.74,62.32 C2.74,62.32 1.72,69.71 6.7,70.28 C12,70.88 21.36,70.79 23.92,70.58 C27.7,70.28 28.77,66.53 28.56,62.18 C28.4,58.9 15.3,61.5 15.3,61.5 L2.74,62.32 Z" fill="#F17900"/>
  <path d="M21.77,18.87 C21.77,18.87 16.06,21.83 19.1,27.4 C21.61,32 29.43,39.59 31.67,40.84 C34.78,42.57 37.99,41.33 39.47,39.61 C41.81,36.89 40.55,33.25 40.55,33.25 L21.77,18.87 Z" fill="#F17900"/>
  <path d="M64.38,1.75 C61.07,1.75 58.33,4.02 58.1,7.12 C57.87,10.22 57.94,19.84 57.99,21.29 C58.04,22.74 60.04,25.37 64.11,25.47 C69.16,25.59 70.7,22.23 70.7,22.23 C70.7,22.23 70.58,9.31 70.58,7.42 C70.58,5.53 69.45,1.75 64.38,1.75 Z" fill="url(#SVGID_1_)"/>
  <path d="M99.3,21.03 C97.06,22.92 89.66,29.04 87.88,31.66 C86.77,33.29 86.48,36.06 88.85,37.94 C90.55,39.3 94.52,39.47 96.93,37.49 C99.34,35.51 106.24,29.02 108.12,26.72 C109.62,24.89 110.89,22.35 108.06,19.84 C105.24,17.33 101.75,18.96 99.3,21.03 Z" fill="url(#SVGID_2_)"/>
  <path d="M104.51,58.22 C102,58.47 99.49,60.42 99.49,63.24 C99.49,66.06 101.37,67.74 105.55,67.95 C109.73,68.16 117.78,68.05 120.29,67.95 C122.9,67.85 124.67,65.45 124.58,62.62 C124.48,59.27 121.34,58.33 118.62,58.23 C115.9,58.11 106.6,58.01 104.51,58.22 Z" fill="url(#SVGID_3_)"/>
  <path d="M89.06,89.53 C87.36,91.06 86.06,94.1 90.23,98.12 C94.41,102.14 97.81,105.75 101.35,107.2 C103.65,108.14 105.28,107.99 107.25,105.95 C108.56,104.59 108.85,102.17 107.51,100.36 C104.85,96.76 98,90.53 95.19,89.03 C92.73,87.73 90.67,88.07 89.06,89.53 Z" fill="url(#SVGID_4_)"/>
  <path d="M63.49,100 C60.14,100 57.47,102.55 57.36,106.53 C57.25,110.51 57.31,116.62 57.36,118.22 C57.41,119.82 60.16,122.23 63.28,122.27 C67.74,122.33 69.53,119.41 69.52,118.08 C69.51,116.81 69.48,108.25 69.51,106.66 C69.57,103.45 67.35,100 63.49,100 Z" fill="url(#SVGID_5_)"/>
  <path d="M37.65,89.34 C35.58,87.83 32.26,87.53 28.77,90.8 C25.28,94.07 20.45,98.9 19.38,100.41 C18.3,101.92 17.13,104.77 18.78,106.61 C20.5,108.55 24.51,108.23 27.14,105.95 C29.77,103.67 36.7,96.32 38.35,93.86 C39.72,91.79 39.46,90.66 37.65,89.34 Z" fill="url(#SVGID_6_)"/>
  <path d="M8.4,57.82 C5.58,57.9 2.66,59.62 2.62,63.02 C2.58,66.42 5.22,67.72 7.97,67.87 C10.72,68.02 21.21,68.26 23.81,68.05 C26.41,67.83 28.27,65.99 28.56,63.03 C28.85,60.07 26.32,58.41 23.65,58.12 C20.98,57.82 11,57.75 8.4,57.82 Z" fill="url(#SVGID_7_)"/>
  <path d="M21.48,19.09 C19.67,20.7 19,23.64 21.53,26.96 C24.8,31.26 30.16,36.26 32.06,37.73 C34.3,39.46 37.48,39.47 39.47,37.08 C41.07,35.16 41.28,33.18 38.53,29.78 C35.78,26.38 30.07,20.6 28.63,19.3 C26.77,17.62 23.43,17.35 21.48,19.09 Z" fill="url(#SVGID_8_)"/>
</svg>
